X: 1
T: Mama's Pet
M: 4/4
L: 1/8
R: reel
K: Gmaj
G2FG EG DF|G2AG DGBA|G2FG EGDG|(3Bcd ed BAGF|
GEED EDB,A,|G,B,~B,2 G,B,DF|G2FG EGDA|(3Bcd ed Bdgf||
eA (3cBA EAcA|BG~G2 DGBd|eA (3cBA EAcA|(3Bcd ed Bdgf|
e2dg egdB|~G3A BABd|edef g2af|g2fg edBA||
